storage/app/icons/phosphoricons/regular/briefcase-metal.svg

<svg xmlns="http://www.w3.org/2000/svg" fill="currentColor" viewBox="0 0 256 256"><path d="M216 56h-40v-8a24 24 0 0 0-24-24h-48a24 24 0 0 0-24 24v8H40a16 16 0 0 0-16 16v128a16 16 0 0 0 16 16h176a16 16 0 0 0 16-16V72a16 16 0 0 0-16-16M40 112h176v48H40Zm56-64a8 8 0 0 1 8-8h48a8 8 0 0 1 8 8v8H96Zm120 24v24H40V72Zm0 128H40v-24h176z"/></svg>

<svg xmlns="http://www.w3.org/2000/svg" viewBox="0 0 256 256" fill="currentColor"><path d="M216,56H176V48a24,24,0,0,0-24-24H104A24,24,0,0,0,80,48v8H40A16,16,0,0,0,24,72V200a16,16,0,0,0,16,16H216a16,16,0,0,0,16-16V72A16,16,0,0,0,216,56ZM40,112H216v48H40ZM96,48a8,8,0,0,1,8-8h48a8,8,0,0,1,8,8v8H96ZM216,72V96H40V72Zm0,128H40V176H216v24Z"/></svg>
